webroot/img/new-desgin/why_besa/icon-4.svg

<svg width="104" height="105" viewBox="0 0 104 105" fill="none" xmlns="http://www.w3.org/2000/svg">
<g id="Frame" clip-path="url(#clip0_31_268)">
<g id="Group">
<path id="Vector" d="M27.7333 17.7506C27.7333 14.9923 26.6376 12.3471 24.6872 10.3967C22.7369 8.4463 20.0916 7.35059 17.3333 7.35059C14.5751 7.35059 11.9298 8.4463 9.97942 10.3967C8.02904 12.3471 6.93333 14.9923 6.93333 17.7506C6.93333 20.5088 8.02904 23.1541 9.97942 25.1045C11.9298 27.0549 14.5751 28.1506 17.3333 28.1506C20.0916 28.1506 22.7369 27.0549 24.6872 25.1045C26.6376 23.1541 27.7333 20.5088 27.7333 17.7506ZM10.4 17.7506C10.4 15.9118 11.1305 14.1482 12.4307 12.848C13.731 11.5477 15.4945 10.8173 17.3333 10.8173C19.1722 10.8173 20.9357 11.5477 22.2359 12.848C23.5362 14.1482 24.2667 15.9118 24.2667 17.7506C24.2667 19.5894 23.5362 21.3529 22.2359 22.6532C20.9357 23.9534 19.1722 24.6839 17.3333 24.6839C15.4945 24.6839 13.731 23.9534 12.4307 22.6532C11.1305 21.3529 10.4 19.5894 10.4 17.7506Z" fill="url(#paint0_linear_31_268)"/>
<path id="Vector_2" d="M86.6667 48.9505C77.2564 48.8049 69.5049 56.3033 69.3333 65.7118C69.3333 73.0958 74.1347 81.733 78.4888 88.051C73.7741 89.2366 70.616 91.379 69.6488 94.0171H15.6C12.382 94.0171 9.29588 92.7388 7.02043 90.4634C4.74499 88.1879 3.46666 85.1017 3.46666 81.8838C3.46666 78.6658 4.74499 75.5797 7.02043 73.3042C9.29588 71.0288 12.382 69.7505 15.6 69.7505H50.2667C53.4846 69.7505 56.5708 68.4721 58.8462 66.1967C61.1217 63.9212 62.4 60.8351 62.4 57.6171C62.4 54.3992 61.1217 51.313 58.8462 49.0376C56.5708 46.7621 53.4846 45.4838 50.2667 45.4838H34.346C33.384 42.8457 30.2259 40.7033 25.506 39.5177C29.8653 33.1997 34.6667 24.5625 34.6667 17.1785C34.4951 7.76992 26.7436 0.271524 17.3333 0.417124C7.92306 0.271524 0.171596 7.76992 -3.8147e-06 17.1785C-3.8147e-06 24.5625 4.80133 33.1997 9.15546 39.5177C3.4424 40.9546 -3.8147e-06 43.7903 -3.8147e-06 47.2171C-3.8147e-06 52.1589 7.45333 55.8838 17.3333 55.8838C26.0208 55.8838 32.8241 53.003 34.3443 48.9505H50.2667C52.5652 48.9505 54.7696 49.8636 56.3949 51.4889C58.0202 53.1142 58.9333 55.3186 58.9333 57.6171C58.9333 59.9157 58.0202 62.1201 56.3949 63.7454C54.7696 65.3707 52.5652 66.2838 50.2667 66.2838H15.6C11.4626 66.2838 7.4947 67.9274 4.56913 70.8529C1.64356 73.7785 -3.34978e-06 77.7464 -3.34978e-06 81.8838C-3.34978e-06 86.0212 1.64356 89.9891 4.56913 92.9147C7.4947 95.8402 11.4626 97.4838 15.6 97.4838H69.6557C71.1759 101.536 77.9757 104.417 86.6667 104.417C96.5467 104.417 104 100.692 104 95.7505C104 92.3237 100.558 89.4879 94.8445 88.051C99.1987 81.733 104 73.0958 104 65.7118C103.828 56.3033 96.0769 48.8049 86.6667 48.9505ZM3.46666 17.1785C3.5481 13.5785 5.0534 10.1576 7.65266 7.66558C10.2519 5.17354 13.7331 3.8136 17.3333 3.88379C20.9335 3.8136 24.4147 5.17354 27.014 7.66558C29.6133 10.1576 31.1186 13.5785 31.2 17.1785C31.2 26.9822 20.9941 40.1434 17.3333 44.5495C13.6708 40.1451 3.46666 26.9943 3.46666 17.1785ZM17.3333 52.4171C8.86773 52.4171 3.46666 49.3387 3.46666 47.2171C3.46666 45.6571 6.24866 43.5997 11.3707 42.5943C12.1923 43.6915 12.948 44.6622 13.6101 45.4838H12.1333C11.6736 45.4838 11.2327 45.6664 10.9077 45.9915C10.5826 46.3165 10.4 46.7574 10.4 47.2171C10.4 47.6768 10.5826 48.1177 10.9077 48.4428C11.2327 48.7678 11.6736 48.9505 12.1333 48.9505H22.5333C22.993 48.9505 23.4339 48.7678 23.759 48.4428C24.084 48.1177 24.2667 47.6768 24.2667 47.2171C24.2667 46.7574 24.084 46.3165 23.759 45.9915C23.4339 45.6664 22.993 45.4838 22.5333 45.4838H21.0565C21.7187 44.6622 22.4744 43.6915 23.296 42.5943C28.4267 43.5997 31.2 45.6571 31.2 47.2171C31.2 49.3387 25.7989 52.4171 17.3333 52.4171ZM100.533 95.7505C100.533 97.8721 95.1323 100.95 86.6667 100.95C78.2011 100.95 72.8 97.8721 72.8 95.7505C72.8 94.1905 75.5733 92.133 80.704 91.1277C81.5256 92.2249 82.2813 93.1955 82.9435 94.0171H81.4667C81.007 94.0171 80.5661 94.1997 80.241 94.5248C79.916 94.8499 79.7333 95.2907 79.7333 95.7505C79.7333 96.2102 79.916 96.651 80.241 96.9761C80.5661 97.3012 81.007 97.4838 81.4667 97.4838H91.8667C92.3264 97.4838 92.7673 97.3012 93.0923 96.9761C93.4174 96.651 93.6 96.2102 93.6 95.7505C93.6 95.2907 93.4174 94.8499 93.0923 94.5248C92.7673 94.1997 92.3264 94.0171 91.8667 94.0171H90.3899C91.052 93.1955 91.8077 92.2249 92.6293 91.1277C97.76 92.133 100.533 94.1905 100.533 95.7505ZM86.6667 93.0829C83.0041 88.6785 72.8 75.5277 72.8 65.7118C72.9497 62.1345 74.4761 58.7534 77.0602 56.2752C79.6443 53.7969 83.0862 52.4132 86.6667 52.4132C90.2471 52.4132 93.689 53.7969 96.2731 56.2752C98.8573 58.7534 100.384 62.1345 100.533 65.7118C100.533 75.5155 90.3275 88.6767 86.6667 93.0829Z" fill="url(#paint1_linear_31_268)"/>
<path id="Vector_3" d="M86.6667 55.8838C83.9084 55.8838 81.2631 56.9795 79.3128 58.9299C77.3624 60.8803 76.2667 63.5255 76.2667 66.2838C76.2667 69.042 77.3624 71.6873 79.3128 73.6377C81.2631 75.5881 83.9084 76.6838 86.6667 76.6838C89.4249 76.6838 92.0702 75.5881 94.0206 73.6377C95.971 71.6873 97.0667 69.042 97.0667 66.2838C97.0667 63.5255 95.971 60.8803 94.0206 58.9299C92.0702 56.9795 89.4249 55.8838 86.6667 55.8838ZM86.6667 73.2171C84.8278 73.2171 83.0643 72.4866 81.7641 71.1864C80.4638 69.8861 79.7333 68.1226 79.7333 66.2838C79.7333 64.445 80.4638 62.6814 81.7641 61.3812C83.0643 60.0809 84.8278 59.3505 86.6667 59.3505C88.5055 59.3505 90.269 60.0809 91.5693 61.3812C92.8695 62.6814 93.6 64.445 93.6 66.2838C93.6 68.1226 92.8695 69.8861 91.5693 71.1864C90.269 72.4866 88.5055 73.2171 86.6667 73.2171Z" fill="url(#paint2_linear_31_268)"/>
</g>
</g>
<defs>
<linearGradient id="paint0_linear_31_268" x1="8.88151" y1="9.25059" x2="27.6043" y2="32.7796" gradientUnits="userSpaceOnUse">
<stop stop-color="#007BC4"/>
<stop offset="1" stop-color="#0B4C97"/>
</linearGradient>
<linearGradient id="paint1_linear_31_268" x1="9.74091" y1="9.91525" x2="103.357" y2="127.561" gradientUnits="userSpaceOnUse">
<stop stop-color="#007BC4"/>
<stop offset="1" stop-color="#0B4C97"/>
</linearGradient>
<linearGradient id="paint2_linear_31_268" x1="78.2148" y1="57.7838" x2="96.9376" y2="81.3128" gradientUnits="userSpaceOnUse">
<stop stop-color="#007BC4"/>
<stop offset="1" stop-color="#0B4C97"/>
</linearGradient>
<clipPath id="clip0_31_268">
<rect width="104" height="104" fill="white" transform="translate(0 0.416992)"/>
</clipPath>
</defs>
</svg>

<svg width="104" height="105" fill="none" xmlns="http://www.w3.org/2000/svg"><g clip-path="url(#a)"><path d="M27.733 17.75a10.4 10.4 0 1 0-20.8 0 10.4 10.4 0 0 0 20.8 0Zm-17.333 0a6.933 6.933 0 1 1 13.867 0 6.933 6.933 0 0 1-13.867 0Z" fill="url(#b)"/><path d="M86.667 48.95c-9.41-.145-17.162 7.353-17.334 16.762 0 7.384 4.802 16.021 9.156 22.339-4.715 1.186-7.873 3.328-8.84 5.966H15.6a12.133 12.133 0 1 1 0-24.266h34.667a12.133 12.133 0 0 0 0-24.267H34.346c-.962-2.638-4.12-4.78-8.84-5.966 4.36-6.318 9.16-14.956 9.16-22.34C34.497 7.77 26.745.273 17.334.418 7.923.271.172 7.77 0 17.177c0 7.384 4.801 16.022 9.155 22.34C3.442 40.955 0 43.79 0 47.218c0 4.94 7.453 8.666 17.333 8.666 8.688 0 15.491-2.881 17.011-6.934h15.923a8.667 8.667 0 0 1 0 17.334H15.6a15.6 15.6 0 0 0 0 31.2h54.056c1.52 4.052 8.32 6.933 17.01 6.933 9.88 0 17.334-3.725 17.334-8.666 0-3.427-3.442-6.263-9.156-7.7C99.2 81.733 104 73.096 104 65.711c-.172-9.408-7.923-16.906-17.333-16.76Zm-83.2-31.772A13.605 13.605 0 0 1 17.333 3.884 13.605 13.605 0 0 1 31.2 17.178c0 9.804-10.206 22.965-13.867 27.372-3.662-4.405-13.866-17.556-13.866-27.371Zm13.866 35.24c-8.465 0-13.866-3.08-13.866-5.2 0-1.56 2.782-3.618 7.904-4.624a103.76 103.76 0 0 0 2.24 2.89h-1.478a1.733 1.733 0 1 0 0 3.466h10.4a1.734 1.734 0 0 0 0-3.466h-1.477c.663-.822 1.418-1.793 2.24-2.89 5.13 1.006 7.904 3.063 7.904 4.623 0 2.122-5.401 5.2-13.867 5.2Zm83.2 43.333c0 2.121-5.4 5.199-13.866 5.199S72.8 97.872 72.8 95.75c0-1.56 2.773-3.617 7.904-4.622a103.539 103.539 0 0 0 2.24 2.89h-1.477a1.733 1.733 0 1 0 0 3.466h10.4a1.733 1.733 0 1 0 0-3.467H90.39c.662-.822 1.418-1.792 2.24-2.89 5.13 1.006 7.903 3.064 7.903 4.624Zm-13.866-2.668C83.004 88.679 72.8 75.528 72.8 65.712a13.879 13.879 0 0 1 27.733 0c0 9.803-10.206 22.965-13.866 27.37Z" fill="url(#c)"/><path d="M86.667 55.884a10.4 10.4 0 1 0 0 20.8 10.4 10.4 0 0 0 0-20.8Zm0 17.333a6.933 6.933 0 1 1 0-13.867 6.933 6.933 0 0 1 0 13.867Z" fill="url(#d)"/></g><defs><linearGradient id="b" x1="8.882" y1="9.251" x2="27.604" y2="32.78" gradientUnits="userSpaceOnUse"><stop stop-color="#007BC4"/><stop offset="1" stop-color="#0B4C97"/></linearGradient><linearGradient id="c" x1="9.741" y1="9.915" x2="103.357" y2="127.561" gradientUnits="userSpaceOnUse"><stop stop-color="#007BC4"/><stop offset="1" stop-color="#0B4C97"/></linearGradient><linearGradient id="d" x1="78.215" y1="57.784" x2="96.938" y2="81.313" gradientUnits="userSpaceOnUse"><stop stop-color="#007BC4"/><stop offset="1" stop-color="#0B4C97"/></linearGradient><clipPath id="a"><path fill="#fff" transform="translate(0 .417)" d="M0 0h104v104H0z"/></clipPath></defs></svg>
